X: 211
T: Possum up a ‘Simmon Tree
B: canberra pickers and fiddlers
B: old time tunes update
B: tunes
M:2/4
L:1/8
Q: 1/4=100
K:F
V:1 
(3C/D/E/|F/E/F/G/ A/B/c/A/|B/A/B/c/ d/e/f/d/|c/=B/c/d/ c/A/F/G/|A/G/F/A/ G/E/D/(3C/D/E/|
F/E/F/G/ A/B/c/A/|B/A/B/c/ d/e/f/d/|c/=B/c/d/ c/A/F/G/|A/F/G/E/ Fc||
e/^d/e/f/ g/^f/g/e/|=f/e/f/d/ c>c|e/d/e/f/ g/^f/g/e/|=f/e/f/d/ c>A|B/A/B/c/ d/e/f/d/|c/A/F/A/ c>f|
e/d/c/B/ A/G/F/E/|FA F2||C/Ff/ c/d/c/A/|B/A/B/c/ d/e/f|C/Ff/ c/d/c/B/|
G/F/G/A/ G/E/C|C/Ff/ c/d/c/A/|B/A/B/c/ d/e/f/d/|c/B/c/d/ c/A/F/G/|A/G/F/E/ F2||
% abcbook-tune_id 67a7d9ecfb6ec414cc7b141d
% abcbook-tune_composer_id 
% abcbook-link-0 https://www.youtube.com/watch?v=qlqorfoAtIg
% abcbook-link-title-0 Possum Up A &quot;Simmon Tree
% abcbook-link-1 https://www.youtube.com/watch?v=7IxPE5I7XSI
% abcbook-link-title-1 Possum Up A Simmon Tree
% abcbook-link-start-at-1 31
% abcbook-boost 0
% abcbook-difficulty 0
% abcbook-tags old time tunes
% abcbook-tablature 
% abcbook-transpose 
% abcbook-tuning GDGD
% abcbook-lastupdated 1739218787628
% abcbook-src-url 
% abcbook-soundfonts 
% abcbook-repeats 1


